X: 28597
T: Muscraíoch
R: polka
M: 2/4
K: Dmixolydian
DE FE/D/|Bc A2|BG AG|Bc A2|DE FE/D/|Bc A2|dG BA|G2 GF/E/:|
FG AD|dc/B/ AD|FG AD|cd/e/ d2|FG AD|dc/B/ AD|dc/B/ AD|AF G2:|

